assets/icons/user-tag.svg

<svg width="24" height="25" viewBox="0 0 24 25" fill="none" xmlns="http://www.w3.org/2000/svg">
<path d="M20.2941 5.61726C20.294 4.3734 19.2762 3.35348 18 3.35348H6.00001C4.72378 3.35348 3.70606 4.3734 3.70589 5.61726V16.5274L3.70865 16.6432C3.7694 17.8342 4.76346 18.7919 6.00001 18.7919H6.75001C7.7204 18.7919 8.66968 19.1714 9.36536 19.8652H9.36605L11.0763 21.5555H11.0756C11.5807 22.054 12.409 22.0539 12.9141 21.5555L14.6236 19.8652C15.3184 19.172 16.2579 18.792 17.2397 18.7919H18C19.2748 18.7919 20.2941 17.763 20.2941 16.5274V5.61726ZM21.7059 16.5274C21.7059 18.5519 20.0452 20.2037 18 20.2037H17.2397C16.6231 20.2037 16.0438 20.442 15.619 20.8668L15.6163 20.8696L13.906 22.5598C12.8511 23.6012 11.1393 23.6011 10.0843 22.5598H10.0837L8.37409 20.8696L8.37064 20.8668C7.94665 20.4428 7.35794 20.2037 6.75001 20.2037H6.00001C4.02011 20.2037 2.39825 18.6643 2.29895 16.717L2.29413 16.5274V5.61726C2.29429 3.5814 3.95645 1.94171 6.00001 1.94171H18C20.0436 1.94171 21.7057 3.5814 21.7059 5.61726V16.5274Z" fill="#111111"/>
<path d="M13.6234 8.30767C13.6234 7.41074 12.8964 6.68358 11.9993 6.68358C11.1023 6.68359 10.3752 7.41071 10.3752 8.30767C10.3752 9.20466 11.1024 9.93174 11.9993 9.93175C12.8963 9.93175 13.6234 9.20464 13.6234 8.30767ZM15.0351 8.30767C15.0351 9.98434 13.676 11.3435 11.9993 11.3435C10.3226 11.3435 8.96345 9.98431 8.96344 8.30767C8.96344 6.63099 10.3227 5.27183 11.9993 5.27182C13.676 5.27182 15.0351 6.63095 15.0351 8.30767Z" fill="#111111"/>
<path d="M15.2936 16.2975C15.2935 15.0155 13.9616 13.7437 11.9999 13.7436C10.0382 13.7436 8.70567 15.0154 8.70559 16.2975C8.70559 16.6874 8.38955 17.0034 7.99971 17.0034C7.60986 17.0034 7.29382 16.6874 7.29382 16.2975C7.2939 13.9798 9.54179 12.3318 11.9999 12.3318C14.458 12.3319 16.7053 13.9799 16.7054 16.2975C16.7054 16.6874 16.3893 17.0034 15.9995 17.0034C15.6097 17.0033 15.2936 16.6873 15.2936 16.2975Z" fill="#111111"/>
</svg>

<svg xmlns="http://www.w3.org/2000/svg" width="24" height="25" fill="none" viewBox="0 0 24 25"><path fill="#111" d="M20.294 5.617c0-1.244-1.018-2.264-2.294-2.264H6c-1.276 0-2.294 1.02-2.294 2.264v10.91l.003.116A2.28 2.28 0 0 0 6 18.792h.75c.97 0 1.92.38 2.615 1.073h.001l1.71 1.69a1.317 1.317 0 0 0 1.838 0l1.71-1.69a3.7 3.7 0 0 1 2.616-1.073H18c1.275 0 2.294-1.029 2.294-2.265zm1.412 10.91c0 2.025-1.66 3.677-3.706 3.677h-.76c-.617 0-1.196.238-1.621.663l-.003.003-1.71 1.69a2.73 2.73 0 0 1-3.822 0l-1.71-1.69-.003-.003a2.3 2.3 0 0 0-1.621-.663H6c-1.98 0-3.602-1.54-3.701-3.487l-.005-.19V5.617c0-2.036 1.662-3.675 3.706-3.675h12c2.044 0 3.706 1.64 3.706 3.675z"/><path fill="#111" d="M13.623 8.308a1.624 1.624 0 1 0-3.248 0 1.624 1.624 0 0 0 3.248 0m1.412 0a3.036 3.036 0 1 1-6.071 0 3.036 3.036 0 0 1 6.071 0m.259 7.99c0-1.282-1.332-2.554-3.294-2.554s-3.294 1.271-3.294 2.553a.706.706 0 1 1-1.412 0c0-2.317 2.248-3.965 4.706-3.965s4.705 1.648 4.705 3.965a.706.706 0 0 1-1.411 0"/></svg>
